frontend/public/svg/interface/bookmark.svg

<svg width="118" height="155" viewBox="0 0 118 155" fill="none" xmlns="http://www.w3.org/2000/svg">
<g clip-path="url(#clip0)">
<path d="M56.0783 107.382C55.4041 108.47 54.645 109.505 53.8083 110.474C41.3062 122.797 28.7751 135.09 16.2149 147.353C14.0892 149.468 11.7634 151.374 9.27033 153.043C5.04205 155.798 1.705 154.135 1.00105 149.114C0.880203 147.788 0.852448 146.455 0.917897 145.124C0.964697 113.828 0.930928 82.5317 1.11293 51.2362C1.18378 38.9257 1.66869 26.6152 2.12109 14.3105C2.32537 11.6584 2.7779 9.03129 3.47299 6.46332C4.21009 3.25696 5.09796 2.39559 8.47798 2.1245C15.3478 1.57324 22.2313 0.939644 29.1155 0.846904C54.251 0.510311 79.3897 0.402671 104.527 0.150391C107.856 0.184034 111.148 0.847844 114.229 2.10645C114.975 2.3557 115.635 2.81229 116.13 3.42268C116.625 4.03307 116.935 4.77187 117.024 5.55211C117.262 7.08419 117.366 8.63381 117.335 10.1839C115.675 53.3361 114.86 96.4946 116.072 139.676C116.054 143.084 115.767 146.486 115.213 149.848C114.88 152.368 112.483 153.852 109.719 153.48C106.933 153.093 104.387 151.697 102.565 149.56C88.7036 134.096 71.7678 122.033 56.0783 107.382ZM108.629 7.75387L10.4976 8.46337C10.3676 9.60868 10.2481 10.2502 10.2331 10.8935C10.083 17.6564 9.79098 24.4206 9.83713 31.1822C10.0789 66.5829 10.3705 101.983 10.712 137.382C10.7185 138.076 10.8115 138.769 10.8999 139.936C12.092 138.828 12.9111 138.112 13.6788 137.347C25.9464 125.103 38.2079 112.855 50.4634 100.602C54.9348 96.123 57.7733 96.0063 62.4611 100.122C68.3898 105.326 74.414 110.423 80.3179 115.656C88.7133 123.096 97.0353 130.619 105.398 138.096C105.947 138.504 106.521 138.878 107.115 139.218C104.65 95.2053 107.356 51.7531 108.629 7.75387Z" fill="black"/>
</g>
<defs>
<clipPath id="clip0">
<rect width="117" height="155" fill="white" transform="translate(0.777344)"/>
</clipPath>
</defs>
</svg>

<svg xmlns="http://www.w3.org/2000/svg" width="118" height="155" fill="none" viewBox="0 0 118 155"><g clip-path="url(#a)"><path fill="#000" d="M56.078 107.382a24.4 24.4 0 0 1-2.27 3.092 11069 11069 0 0 1-37.593 36.879 46.6 46.6 0 0 1-6.945 5.69c-4.228 2.755-7.565 1.092-8.269-3.929a28.5 28.5 0 0 1-.083-3.99c.047-31.296.013-62.592.195-93.888.07-12.31.556-24.62 1.008-36.925.204-2.653.657-5.28 1.352-7.848.737-3.206 1.625-4.067 5.005-4.338C15.348 1.573 22.231.94 29.116.847 54.25.51 79.39.403 104.527.15a26.4 26.4 0 0 1 9.702 1.956 4.12 4.12 0 0 1 2.795 3.446c.238 1.532.342 3.082.311 4.632-1.66 43.152-2.475 86.31-1.263 129.492a65 65 0 0 1-.859 10.172c-.333 2.52-2.73 4.004-5.494 3.632a11.48 11.48 0 0 1-7.154-3.92c-13.861-15.464-30.797-27.527-46.487-42.178M108.63 7.754l-98.131.71c-.13 1.145-.25 1.786-.265 2.43-.15 6.762-.442 13.527-.396 20.288q.363 53.1.875 106.2c.007.694.1 1.387.188 2.554 1.192-1.108 2.011-1.824 2.779-2.589a60401 60401 0 0 0 36.784-36.745c4.472-4.479 7.31-4.596 11.998-.48 5.929 5.204 11.953 10.301 17.857 15.534 8.395 7.44 16.717 14.963 25.08 22.44q.825.612 1.717 1.122c-2.465-44.013.241-87.465 1.514-131.464"/></g><defs><clipPath id="a"><path fill="#fff" d="M.777 0h117v155h-117z"/></clipPath></defs></svg>
